X:8
T:The Country Lass
C:James Hill
Z:robin.beech@mcgill.ca
B:The Fiddle Music of James Hill
N:Originally in D minor
R:slow air
M:4/4
L:1/8
K:D
DC | B,CDE F^G^AB | cB#AB cedc | Bdce dfeg | fedc B2 :|
F^A | Bcde fgef | dc/d/ ed cAec  | Bcde fgef | decd BF^G^A |
Bcde fgef | dc/d/ ed cAec | BFdB cegf |fedc B2 |]
